AsLauncher/src/IconVanilla.svg

<?xml version="1.0" encoding="UTF-8" standalone="no"?>
<!-- Created with Inkscape (http://www.inkscape.org/) -->

<svg
   width="256"
   height="256"
   viewBox="0 0 67.733333 67.733333"
   version="1.1"
   id="svg1"
   inkscape:version="1.4.2 (f4327f4, 2025-05-13)"
   sodipodi:docname="IconVanilla.svg"
   xml:space="preserve"
   inkscape:export-filename="C:\Users\SHO8814\Assets\Icons\Assets\Icons\Sidebar\IconVanila.png"
   inkscape:export-xdpi="36"
   inkscape:export-ydpi="36"
   xmlns:inkscape="http://www.inkscape.org/namespaces/inkscape"
   xmlns:sodipodi="http://sodipodi.sourceforge.net/DTD/sodipodi-0.dtd"
   xmlns="http://www.w3.org/2000/svg"
   xmlns:svg="http://www.w3.org/2000/svg"><sodipodi:namedview
     id="namedview1"
     pagecolor="#ffffff"
     bordercolor="#000000"
     borderopacity="0.25"
     inkscape:showpageshadow="2"
     inkscape:pageopacity="0.0"
     inkscape:pagecheckerboard="0"
     inkscape:deskcolor="#d1d1d1"
     inkscape:document-units="mm"
     inkscape:zoom="2"
     inkscape:cx="28.5"
     inkscape:cy="53.5"
     inkscape:window-width="1920"
     inkscape:window-height="991"
     inkscape:window-x="-9"
     inkscape:window-y="-9"
     inkscape:window-maximized="1"
     inkscape:current-layer="layer1" /><defs
     id="defs1" /><g
     inkscape:groupmode="layer"
     id="layer1"
     inkscape:label="all"
     style="display:inline;opacity:1;fill:#000000"><path
       id="rect2"
       style="fill:#ffffff;stroke-width:8.68318;stroke-linecap:round;stroke-linejoin:round"
       d="m 20.803474,-18.509253 5e-6,33.430227 33.013993,32.755075 33.474682,0.303379 -0.303379,-33.474683 -32.755074,-33.013993 z m 4.306742,4.306742 29.09975,3.09e-4 28.511341,28.736927 0.264106,29.137961 L 53.847452,43.40858 25.110524,14.897239 Z"
       transform="matrix(0.86819848,0.49621707,-0.86819848,0.49621707,0,0)"
       inkscape:label="obj2" /><path
       id="rect2-8"
       style="fill:#ffffff;stroke-width:8.06008;stroke-linecap:round;stroke-linejoin:round"
       d="m 34.131252,1.138443 29.024058,16.58864 v 10.583333 l -3.796759,2.17003 v -5.291667 l -7.087263,4.050711 v 5.291666 l -3.628007,2.073581 v 5.291667 l -3.628007,2.07358 V 33.386651 l -3.628008,2.07358 -3.628007,2.07358 v 5.291667 l -3.628007,2.07358 -3.628007,-2.07358 -3.628007,-2.07358 v -5.291667 l -3.628008,-2.07358 -3.628007,-2.07358 v 5.291667 L 12.363209,32.457577 V 27.16591 L 8.7352014,25.09233 5.107182,23.01875 l 1.22e-5,-5.291667 z"
       sodipodi:nodetypes="ccccccccccccccccccccccccccc"
       inkscape:label="obj1" /></g></svg>

<?xml version="1.0" encoding="UTF-8" standalone="no"?>
<!-- Created with Inkscape (http://www.inkscape.org/) -->

<svg
   width="256"
   height="256"
   viewBox="0 0 67.733333 67.733333"
   version="1.1"
   id="svg1"
   inkscape:version="1.4.2 (f4327f4, 2025-05-13)"
   sodipodi:docname="IconVanilla.svg"
   xml:space="preserve"
   inkscape:export-filename="C:\Users\SHO8814\Assets\Icons\Assets\Icons\Sidebar\IconVanila.png"
   inkscape:export-xdpi="36"
   inkscape:export-ydpi="36"
   xmlns:inkscape="http://www.inkscape.org/namespaces/inkscape"
   xmlns:sodipodi="http://sodipodi.sourceforge.net/DTD/sodipodi-0.dtd"
   xmlns="http://www.w3.org/2000/svg"
   xmlns:svg="http://www.w3.org/2000/svg"><sodipodi:namedview
     id="namedview1"
     pagecolor="#ffffff"
     bordercolor="#000000"
     borderopacity="0.25"
     inkscape:showpageshadow="2"
     inkscape:pageopacity="0.0"
     inkscape:pagecheckerboard="0"
     inkscape:deskcolor="#d1d1d1"
     inkscape:document-units="mm"
     inkscape:zoom="2"
     inkscape:cx="28.75"
     inkscape:cy="54.5"
     inkscape:window-width="1920"
     inkscape:window-height="991"
     inkscape:window-x="-9"
     inkscape:window-y="-9"
     inkscape:window-maximized="1"
     inkscape:current-layer="layer1" /><defs
     id="defs1" /><g
     inkscape:groupmode="layer"
     id="layer1"
     inkscape:label="all"
     style="display:none;opacity:0.5;fill:#000000"
     sodipodi:insensitive="true"><path
       id="rect2"
       style="fill:#ffffff;stroke-width:8.68318;stroke-linecap:round;stroke-linejoin:round"
       d="M 20.803474 -18.509253 L 20.803479 14.920974 L 53.817472 47.676049 L 87.292154 47.979428 L 86.988775 14.504745 L 54.233701 -18.509248 L 20.803474 -18.509253 z M 25.110216 -14.202511 L 54.209966 -14.202202 L 82.721307 14.534725 L 82.985413 43.672686 L 53.847452 43.40858 L 25.110524 14.897239 L 25.110216 -14.202511 z "
       transform="matrix(0.86819848,0.49621707,-0.86819848,0.49621707,0,0)"
       inkscape:label="obj2" /><path
       id="rect2-8"
       style="fill:#ffffff;stroke-width:8.06008;stroke-linecap:round;stroke-linejoin:round"
       d="m 34.131252,1.138443 29.024058,16.58864 v 10.583333 l -3.796759,2.17003 v -5.291667 l -7.087263,4.050711 v 5.291666 l -3.628007,2.073581 v 5.291667 l -3.628007,2.07358 V 33.386651 l -3.628008,2.07358 -3.628007,2.07358 v 5.291667 l -3.628007,2.07358 -3.628007,-2.07358 -3.628007,-2.07358 v -5.291667 l -3.628008,-2.07358 -3.628007,-2.07358 v 5.291667 L 12.363209,32.457577 V 27.16591 L 8.7352014,25.09233 5.107182,23.01875 l 1.22e-5,-5.291667 z"
       sodipodi:nodetypes="ccccccccccccccccccccccccccc"
       inkscape:label="obj1" /></g></svg>
